X:1
T:Title
%%score { ( 1 3 ) | ( 2 4 ) }
L:1/8
Q:1/4=116
M:4/4
K:Bb
V:1 treble nm="Grand Piano"
V:3 treble 
V:2 bass 
V:4 bass 
V:1
 [DF]4 [EG]2 [DF]2 | [DB]4 [DF]4 | G2 B2 [FA]2 G2 | [B,DF]6 z2 | [CE]4 [DF]2 [A,EG]2 | %5
w: Robert~Lowry * *|||||
 [B,DF]4 [DFB]4 | [FA]2 B2 [CFA]2 G2 | F6 z2 | c4 A2 F2 | [Fd]4 [DFB]4 | F2- [B,FB]2 e2 d2 | %11
w: ||||||
 c6 z2 | d4 [B,DB]2 [B,F]2 | [B,EG]4 [EGc]4 | [DB]2 A2 G2 A2 | [B,DB]8 |] %16
w: |||||
V:2
 [B,,B,]4 [B,,B,]2 [B,,B,]2 | [B,,F,]4 [B,,B,]4 | [E,B,]2- [E,B,G]2 z2 E2 | B,,6 z2 | F,4 F,2 F,2 | %5
 B,,4 B,,4 | z2 G2 z2 [B,=E]2 | [F,A,]6 z2 | [F,A,F]4 [F,CF]2 [F,A,]2 | [B,,B,]4 B,,4 | %10
 E,2 D,2 [C,A,]2 [B,,B,]2 | [F,A,F]6 z2 | [B,F]4 B,,2 D,2 | E,4 C,4 | z2 C2 [F,E]2- [F,CE]2 | %15
 B,,8 |] %16
V:3
 x8 | x8 | z4 B,4 | x8 | x8 | x8 | C4 z4 | x8 | x8 | x8 | [CA]2 z2 F4 | x8 | x8 | x8 | F4 z4 | %15
 x8 |] %16
V:4
 x8 | x8 | E2 z2 E,4 | x8 | x8 | x8 | C,4 C,4 | x8 | x8 | x8 | x8 | x8 | x8 | x8 | F,4 B,2 z2 | %15
 x8 |] %16

